flaticon/grooming/manicure-15.svg

<svg xmlns="http://www.w3.org/2000/svg" width="32" height="32" viewBox="0 0 24 24">
    <path d="M 18.953125 10.355469 C 18.789062 8.925781 18.421875 7.445312 17.617188 5.871094 C 17.582031 5.570312 17.4375 5.308594 17.214844 5.136719 C 17.082031 4.90625 16.9375 4.675781 16.78125 4.445312 C 17.027344 4.097656 17.039062 3.667969 16.820312 3.304688 C 16.582031 2.902344 16.097656 2.742188 15.617188 2.902344 C 15.539062 2.945312 15.457031 2.902344 15.417969 2.863281 C 15.375 2.824219 15.296875 2.785156 15.335938 2.664062 L 15.335938 2.621094 C 15.375 2.261719 15.296875 1.902344 15.015625 1.660156 C 14.773438 1.378906 14.375 1.300781 14.011719 1.417969 L 10.253906 3.503906 L 5.632812 0.214844 C 5.191406 -0.0234375 4.707031 -0.0625 4.1875 0.0976562 C 3.746094 0.214844 3.34375 0.539062 3.105469 0.980469 C 2.863281 1.417969 2.824219 1.902344 2.984375 2.382812 C 3.144531 2.863281 3.503906 3.222656 3.988281 3.464844 L 9.082031 5.867188 L 9.519531 10.003906 L 9.519531 10.082031 C 9.605469 10.335938 9.769531 10.550781 9.984375 10.683594 C 8.890625 11.589844 8.277344 12.929688 8.277344 14.335938 L 8.277344 19.589844 C 8.277344 22.035156 10.242188 24 12.691406 24 L 16.699219 24 C 19.148438 24 21.113281 22.035156 21.113281 19.628906 L 21.113281 14.335938 C 21.113281 12.707031 20.328125 11.238281 18.953125 10.355469 Z M 18.304688 11.785156 L 18.304688 15.457031 C 18.304688 17.0625 17.019531 18.34375 15.417969 18.34375 L 13.972656 18.34375 C 12.367188 18.34375 11.085938 17.0625 11.085938 15.457031 L 11.085938 14.171875 C 11.085938 13.023438 11.085938 11.796875 11.203125 10.527344 C 11.203125 10.527344 11.203125 10.523438 11.207031 10.523438 L 11.246094 10.484375 C 11.328125 10.402344 11.40625 10.402344 11.445312 10.402344 C 11.464844 10.402344 11.492188 10.414062 11.519531 10.433594 C 11.539062 10.457031 11.554688 10.484375 11.566406 10.523438 C 11.613281 10.695312 11.703125 10.839844 11.820312 10.957031 C 12.007812 11.164062 12.28125 11.285156 12.570312 11.285156 C 12.570312 11.285156 12.570312 11.285156 12.648438 11.285156 C 13.132812 11.246094 13.53125 10.925781 13.613281 10.445312 C 13.652344 10.324219 13.734375 10.285156 13.773438 10.285156 C 13.796875 10.285156 13.851562 10.285156 13.90625 10.300781 C 13.914062 10.308594 13.925781 10.316406 13.933594 10.324219 C 14.023438 10.402344 14.117188 10.464844 14.21875 10.511719 C 14.546875 10.691406 14.929688 10.679688 15.257812 10.484375 C 15.65625 10.242188 15.816406 9.761719 15.65625 9.28125 C 15.617188 9.199219 15.65625 9.121094 15.699219 9.082031 C 15.738281 9.082031 15.816406 9 15.9375 9.039062 C 16.378906 9.160156 16.859375 8.917969 17.0625 8.519531 C 17.300781 8.078125 17.183594 7.597656 16.820312 7.277344 C 16.742188 7.195312 16.742188 7.113281 16.742188 7.074219 C 16.742188 7.035156 16.78125 6.953125 16.902344 6.914062 C 17.019531 6.882812 17.125 6.832031 17.222656 6.761719 C 18.019531 8.527344 18.25 10.179688 18.304688 11.785156 Z M 3.746094 2.140625 C 3.664062 1.859375 3.707031 1.582031 3.828125 1.339844 C 3.945312 1.097656 4.1875 0.898438 4.429688 0.816406 C 4.707031 0.738281 4.988281 0.777344 5.191406 0.898438 L 9.722656 4.105469 L 9.242188 5.03125 L 4.308594 2.703125 C 4.027344 2.582031 3.867188 2.382812 3.746094 2.140625 Z M 9.804688 5.722656 L 10.128906 5.089844 L 10.523438 4.347656 L 14.214844 2.300781 C 14.292969 2.300781 14.375 2.34375 14.414062 2.382812 C 14.453125 2.421875 14.496094 2.460938 14.453125 2.582031 C 14.335938 2.945312 14.453125 3.304688 14.734375 3.546875 C 15.015625 3.785156 15.417969 3.867188 15.777344 3.746094 C 15.898438 3.707031 15.980469 3.785156 16.019531 3.828125 C 16.050781 3.859375 16.085938 3.945312 16.03125 4.042969 C 15.996094 4.058594 15.964844 4.082031 15.9375 4.105469 C 15.699219 4.386719 15.617188 4.75 15.738281 5.109375 C 15.859375 5.46875 16.140625 5.710938 16.539062 5.792969 C 16.660156 5.832031 16.699219 5.953125 16.699219 5.992188 C 16.699219 6.03125 16.699219 6.152344 16.539062 6.191406 C 16.21875 6.3125 15.9375 6.59375 15.859375 6.953125 C 15.777344 7.316406 15.898438 7.675781 16.179688 7.957031 C 16.300781 8.039062 16.257812 8.15625 16.21875 8.199219 C 16.21875 8.238281 16.140625 8.316406 15.980469 8.277344 C 15.617188 8.15625 15.257812 8.277344 15.015625 8.558594 C 14.847656 8.726562 14.757812 8.96875 14.761719 9.210938 C 14.757812 9.328125 14.777344 9.445312 14.816406 9.5625 C 14.820312 9.578125 14.824219 9.589844 14.824219 9.605469 C 14.816406 9.679688 14.765625 9.730469 14.734375 9.761719 C 14.695312 9.800781 14.574219 9.84375 14.453125 9.722656 C 14.171875 9.441406 13.8125 9.359375 13.453125 9.480469 C 13.089844 9.601562 12.851562 9.882812 12.769531 10.285156 C 12.730469 10.402344 12.609375 10.445312 12.570312 10.445312 C 12.527344 10.445312 12.410156 10.445312 12.367188 10.285156 C 12.25 9.960938 11.96875 9.683594 11.605469 9.601562 C 11.246094 9.519531 10.886719 9.640625 10.605469 9.921875 L 10.5625 9.960938 C 10.539062 9.988281 10.515625 10.011719 10.492188 10.035156 C 10.457031 10.042969 10.425781 10.042969 10.402344 10.042969 C 10.363281 10.042969 10.285156 10.003906 10.242188 9.921875 Z M 20.308594 19.628906 C 20.308594 21.632812 18.707031 23.238281 16.699219 23.238281 L 12.691406 23.238281 C 10.683594 23.238281 9.082031 21.632812 9.082031 19.628906 L 9.082031 14.335938 C 9.082031 13.25 9.519531 12.207031 10.285156 11.488281 L 10.285156 12.273438 C 10.273438 12.929688 10.285156 13.570312 10.285156 14.214844 L 10.285156 15.496094 C 10.285156 17.542969 11.929688 19.1875 13.972656 19.1875 L 15.417969 19.1875 C 16.441406 19.1875 17.363281 18.773438 18.027344 18.113281 C 18.695312 17.445312 19.105469 16.519531 19.105469 15.496094 L 19.105469 11.488281 C 19.867188 12.25 20.308594 13.25 20.308594 14.335938 Z M 20.308594 19.628906"/>
    <path d="M 13.171875 8.597656 C 13.25 8.71875 13.371094 8.757812 13.492188 8.757812 C 13.570312 8.757812 13.652344 8.757812 13.734375 8.71875 C 13.894531 8.597656 13.933594 8.316406 13.8125 8.15625 L 12.25 5.992188 L 15.097656 5.992188 C 15.335938 5.992188 15.496094 5.832031 15.496094 5.589844 C 15.496094 5.351562 15.335938 5.191406 15.097656 5.191406 L 11.488281 5.191406 C 11.328125 5.191406 11.164062 5.269531 11.125 5.390625 C 11.085938 5.511719 11.085938 5.671875 11.164062 5.792969 Z M 13.171875 8.597656"/>
</svg>

<svg xmlns="http://www.w3.org/2000/svg" width="32" height="32" viewBox="0 0 24 24">
    <path d="M18.953 10.355c-.164-1.43-.531-2.91-1.336-4.484-.035-.3-.18-.562-.402-.734-.133-.23-.277-.461-.434-.692a1.02 1.02 0 0 0 .04-1.14c-.239-.403-.723-.563-1.204-.403-.078.043-.16 0-.199-.039-.043-.039-.121-.078-.082-.199v-.043c.039-.36-.04-.719-.32-.96-.243-.282-.641-.36-1.004-.243l-3.758 2.086L5.633.214C5.19-.022 4.707-.061 4.187.099c-.44.117-.843.441-1.082.882a1.708 1.708 0 0 0-.12 1.403c.16.48.519.84 1.003 1.082l5.094 2.402.438 4.137v.078c.085.254.25.469.464.602a4.73 4.73 0 0 0-1.707 3.652v5.254A4.399 4.399 0 0 0 12.691 24H16.7c2.45 0 4.414-1.965 4.414-4.371v-5.293c0-1.629-.785-3.098-2.16-3.98zm-.648 1.43v3.672a2.875 2.875 0 0 1-2.887 2.887h-1.445a2.873 2.873 0 0 1-2.887-2.887v-1.285c0-1.149 0-2.375.117-3.645 0 0 0-.004.004-.004l.04-.039c.081-.082.16-.082.198-.082.02 0 .047.012.075.032.02.023.035.05.046.09a.97.97 0 0 0 .254.433c.188.207.461.328.75.328h.078c.485-.039.883-.36.965-.84.04-.12.121-.16.16-.16.024 0 .079 0 .133.016.008.008.02.015.028.023.09.078.183.14.285.188.328.18.71.168 1.039-.028.398-.242.558-.722.398-1.203a.17.17 0 0 1 .043-.199c.04 0 .117-.082.239-.043.44.121.921-.121 1.124-.52.239-.44.122-.921-.242-1.242-.078-.082-.078-.164-.078-.203 0-.039.04-.12.16-.16a.969.969 0 0 0 .32-.152c.798 1.765 1.028 3.418 1.083 5.023zM3.746 2.141A1.087 1.087 0 0 1 4.43.816a.986.986 0 0 1 .761.082l4.532 3.207-.48.926-4.934-2.328c-.282-.121-.442-.32-.563-.562zm6.059 3.582l.324-.633.394-.742L14.215 2.3c.078 0 .16.043.2.082.038.039.081.078.038.199a.887.887 0 0 0 .281.965c.282.238.684.32 1.043.2.121-.04.203.038.243.081.03.031.066.117.011.215a.393.393 0 0 0-.093.062c-.239.282-.32.645-.2 1.004.121.36.403.602.801.684.121.039.16.16.16.2 0 .038 0 .16-.16.198-.32.122-.602.403-.68.762-.082.363.04.723.32 1.004.122.082.079.2.04.242 0 .04-.078.117-.239.078-.363-.12-.722 0-.964.282a.908.908 0 0 0-.254.652c-.004.117.015.234.054.351.004.016.008.028.008.043-.008.075-.058.125-.09.157-.039.039-.16.082-.28-.04a.939.939 0 0 0-1-.242c-.364.122-.602.403-.684.805a.246.246 0 0 1-.2.16c-.043 0-.16 0-.203-.16a1.078 1.078 0 0 0-.762-.683c-.359-.082-.718.039-1 .32l-.043.039c-.023.027-.046.05-.07.074-.035.008-.066.008-.09.008-.039 0-.117-.04-.16-.121zm10.504 13.906a3.594 3.594 0 0 1-3.61 3.61h-4.008a3.594 3.594 0 0 1-3.609-3.61v-5.293c0-1.086.438-2.129 1.203-2.848v.785c-.012.657 0 1.297 0 1.942v1.281a3.68 3.68 0 0 0 3.688 3.691h1.445a3.69 3.69 0 0 0 2.61-1.074 3.687 3.687 0 0 0 1.077-2.617v-4.008c.762.762 1.204 1.762 1.204 2.848zm0 0"/>
    <path d="M13.172 8.598c.078.12.2.16.32.16.078 0 .16 0 .242-.04.16-.12.2-.402.079-.562L12.25 5.992h2.848c.238 0 .398-.16.398-.402 0-.238-.16-.399-.398-.399h-3.61c-.16 0-.324.079-.363.2a.489.489 0 0 0 .04.402zm0 0"/>
</svg>
